!!!!SEGMENT: pl-kk--kk-i-423--001-006_golabek-jakub--missa-1a-benedictus.krn
!!!cenid: 17xx:2556
!!!COM: Gołąbek, Jakub
!!!COM-rismID: pe30008748
!!!CDT: 1739-1789/03/30
!!!CNT: Polish
!!!OPR: Missa 1a
!!!OTL: Benedictus
!!!OMV: 006
!!!PDT:
!!!AGN: Sacred; Mass
!!!YEC: Copyright 2022 Narodowy Instytut Fryderyka Chopina (https://polishscores.org)
!!!YEM: License CC-BY-4.0 (https://creativecommons.org/licenses/by/4.0)
!!!SMS-siglum: PL-Kk
!!!SMS-shelfmark: Kk.I.423
!!!SMS-variant:
!!!SMS-altvar:
!!!SMS-shelfwork: 001-006 M
!!!NIFC-rismSourceID: 1001147334
!!!NIFC-rismChildID: 1001147336
!!!NIFC-islandoraID:
!!!URL-pdf-islandora: https://repozytorium.nifc.pl/islandora/object/pl-kk%3A10566/datastream/PDF/view
!!!URL-scan: https://polish.musicsources.pl/pl/lokalizacje/galeria/rekopisy/6034-masses/3 @EN{Scan on Polish Music Sources Website} @PL{Skany w portalu Dziedzictwo Muzyki Polskiej w otwartym dostępie}
!!!IIIF:
!!!ONB-nifc: UWAGA: C – skan 3-4, A – 7-8, T – 11-12, B – 15-16. Części Mszy: Kyrie, Christe, Et in terra, Quoniam, Sanctus (+Osanna), Benedictus, Agnus Dei.
!!!AIN: 1 alto 1 bass 1 canto 1 tenor
!!!key:
**kern	**text	**dynam	**kern	**text	**dynam	**kern	**text	**dynam	**kern	**text	**dynam
*part4	*part4	*part4	*part3	*part3	*part3	*part2	*part2	*part2	*part1	*part1	*part1
*staff4	*staff4	*	*staff3	*staff3	*	*staff2	*staff2	*	*staff1	*staff1	*
*I"Basso	*	*	*I"Tenore	*	*	*I"Alto	*	*	*I"Canto	*	*
*I'B.	*	*	*I'T.	*	*	*I'A.	*	*	*I'C.	*	*
*Ibass	*	*	*Itenor	*	*	*Ialto	*	*	*Icanto	*	*
*ICvox	*	*	*ICvox	*	*	*ICvox	*	*	*ICvox	*	*
*clefF4	*	*	*clefC4	*	*	*clefC3	*	*	*clefC1	*	*
*k[]	*	*	*k[]	*	*	*k[]	*	*	*k[]	*	*
*a:	*	*	*a:	*	*	*a:	*	*	*a:	*	*
*M3/2	*	*	*M3/2	*	*	*M3/2	*	*	*M3/2	*	*
=1	=1	=1	=1	=1	=1	=1	=1	=1	=1	=1	=1
!LO:TX:a:t=Lento	!	!	!	!	!	!	!	!	!	!	!
2AA/	Be-	.	4c\	Be-	.	4a\	Be-	.	1a	Be-	.
.	.	.	8B\L	.	.	8g\L	.	.	.	.	.
.	.	.	8d\J	.	.	8f\J	.	.	.	.	.
*2\right	*	*	*2\right	*	*	*2\right	*	*	*	*	*
2A\	.	.	2c\	.	.	2e\	.	.	.	.	.
*	*	*	*	*	*	*	*	*	*2\right	*	*
2G#X\	-ne-	.	2d\	-ne-	.	2f\	-ne-	.	2b\	-ne-	.
=2	=2	=2	=2	=2	=2	=2	=2	=2	=2	=2	=2
2G\	-di-	.	2d\	-di-	.	2f\	-di-	.	2b\	-di-	.
2A\	-ctus	.	2c\	-ctus	.	2e\	-ctus	.	2a\	-ctus	.
2E\	qui	.	2B\	qui	.	2d\	qui	.	2g#X\	qui	.
=3	=3	=3	=3	=3	=3	=3	=3	=3	=3	=3	=3
.	.	.	8qqB/	.	.	8qqd/	.	.	.	.	.
2AA/	ve-	.	2A/	ve-	.	2c/	ve-	.	2ee\	ve-	.
2E\	-nit	.	2G#X/	-nit	.	2B/	-nit	.	2ee\	-nit	.
2r	.	.	2r	.	.	2r	.	.	2r	.	.
=4	=4	=4	=4	=4	=4	=4	=4	=4	=4	=4	=4
!	!	!LO:DY:a	!	!	!LO:DY:a	!	!	!LO:DY:a	!	!	!LO:DY:a
2AA/	Be-	p	4c\	Be-	p	4a\	Be-	p	1a	Be-	p
.	.	.	8B\L	.	.	8g\L	.	.	.	.	.
.	.	.	8c\J	.	.	8f\J	.	.	.	.	.
2A\	.	.	2c\	.	.	2e\	.	.	.	.	.
2G#X\	-ne-	.	2d\	-ne-	.	2f\	-ne-	.	2b\	-ne-	.
=5	=5	=5	=5	=5	=5	=5	=5	=5	=5	=5	=5
2G\	-di-	.	2d\	-di-	.	2f\	-di-	.	2b\	-di-	.
2A\	-ctus	.	2c\	-ctus	.	2e\	-ctus	.	2a\	-ctus	.
2E\	qui	.	2B\	qui	.	2d\	qui	.	2g#X\	qui	.
=6	=6	=6	=6	=6	=6	=6	=6	=6	=6	=6	=6
.	.	.	8qqB/	.	.	8qqd/	.	.	.	.	.
2AA/	ve-	.	2A/	ve-	.	2c/	ve-	.	2ee\	ve-	.
2E\	-nit	.	2G#X/	-nit	.	2B/	-nit	.	2ee\	-nit	.
2r	.	.	4r	.	.	4r	.	.	4r	.	.
!	!	!	!	!	!	!	!	!	!LO:TX:a:t=dol	!	!
.	.	.	4c\	qui	.	4e\	in	.	4a\	qui	.
!LO:LB:g=original	!	!	!LO:LB:g=original	!	!	!	!	!	!	!	!
=7	=7	=7	=7	=7	=7	=7	=7	=7	=7	=7	=7
!LO:TX:a:t=1	!	!	!	!	!	!	!	!	!	!	!
1.r	.	.	2c\	ve-	.	1.e	no-	.	2a\	ve-	.
.	.	.	4B\	-nit	.	.	.	.	4g#X\	-nit	.
.	.	.	4c\	.	.	.	.	.	4a\	in	.
.	.	.	2d\	in	.	.	.	.	2cc\	.	.
!	!	!	!	!	!	!LO:LB:g=original	!	!	!	!	!
=8	=8	=8	=8	=8	=8	=8	=8	=8	=8	=8	=8
2r	.	.	2d\	no-	.	2.e\	.	.	2b\	no-	.
2r	.	.	4c\	.	.	.	.	.	4a\	-mi-	.
.	.	.	4d\	-mi-	.	4e\	-mi-	.	4b\	.	.
4r	.	.	4c\	-ne	.	4e\	-ne	.	4a\	-ne	.
!	!	!LO:DY:b:t=p	!	!	!	!	!	!	!	!	!
4A\	In	p	4c\	in	.	4e\	in	.	4a\	in	.
!	!	!	!	!	!	!	!	!	!LO:LB:g=original	!	!
=9	=9	=9	=9	=9	=9	=9	=9	=9	=9	=9	=9
2A\	No-	.	2c\	no-	.	2e\	no-	.	2a\	no-	.
2G#X\	-mi-	.	2d\	-mi-	.	2e\	-mi-	.	2b\	-mi-	.
2A\	-ne	.	2c\	-ne	.	2e\	-ne	.	2a\	-ne	.
=10	=10	=10	=10	=10	=10	=10	=10	=10	=10	=10	=10
4E\	Do-	.	4c\	Do-	.	4e\	Do-	.	4a\	Do-	.
4E\	-mi-	.	4B\	-mi-	.	4e\	-mi-	.	4g#X\	-mi-	.
2E\	-ni	.	2B\	-ni	.	2e\	-ni	.	2g#\	-ni	.
2r	.	.	2r	.	.	2r	.	.	2r	.	.
=11	=11	=11	=11	=11	=11	=11	=11	=11	=11	=11	=11
!	!	!LO:DY:a	!	!	!LO:DY:a	!	!	!	!	!	!
2C/	Be-	f	4c\	Be-	f	4e\	Be-	.	2g/	Be-	.
.	.	.	8B\L	.	.	8d\L	.	.	.	.	.
.	.	.	8A\J	.	.	8f\J	.	.	.	.	.
2c\	.	.	2G/	.	.	2e\	.	.	2cc\	.	.
2c\	-ne-	.	2A/	-ne-	.	2f\	-ne-	.	2cc\	-ne-	.
=12	=12	=12	=12	=12	=12	=12	=12	=12	=12	=12	=12
2c\	-di-	.	2A/	-di-	.	2f\	-di-	.	2cc\	-di-	.
2C/	-ctus	.	2G/	-ctus	.	2e\	-ctus	.	2g/	-ctus	.
2C/	qui	.	2e\	qui	.	2g\	qui	.	2g/	qui	.
!	!	!	!LO:PB:g=original	!	!	!	!	!	!	!	!
=13	=13	=13	=13	=13	=13	=13	=13	=13	=13	=13	=13
2C/	ve-	.	2e\	ve-	.	2g\	ve-	.	2g/	ve-	.
2BB/	-nit	.	2d\	-nit	.	2f\	-nit	.	2g/	-nit	.
2C/	qui	.	2c\	qui	.	2e\	qui	.	2g/	qui	.
!LO:LB:g=original	!	!	!	!	!	!	!	!	!	!	!
=14	=14	=14	=14	=14	=14	=14	=14	=14	=14	=14	=14
2G\	ve-	.	2c\	ve-	.	2e\	ve-	.	2g/	ve-	.
2GG/	-nit	.	2B\	-nit	.	2d\	-nit	.	2g/	-nit	.
2G\	in	.	2d\	in	.	2f\	in	.	2g/	in	.
!	!	!	!	!	!	!LO:LB:g=original	!	!	!	!	!
=15	=15	=15	=15	=15	=15	=15	=15	=15	=15	=15	=15
2.E\	No-	.	2.c\	no-	.	2.e\	no-	.	2.g/	no-	.
4D\	-mi-	.	4d\	-mi-	.	4f\	-mi-	.	4b\	-mi-	.
2C/	-ne	.	2e\	-ne	.	2g\	-ne	.	2cc\	-ne	.
=16	=16	=16	=16	=16	=16	=16	=16	=16	=16	=16	=16
2F\	Do-	.	8d\L	Do-	.	8f\L	Do-	.	2a\	Do-	.
.	.	.	8f\	.	.	8a\	.	.	.	.	.
.	.	.	8e\	.	.	8g\	.	.	.	.	.
.	.	.	8d\J	.	.	8f\J	.	.	.	.	.
2G\	.	.	2c\	.	.	2e\	.	.	2g\	.	.
2GG/	-mi-	.	2B\	-mi-	.	2d\	-mi-	.	2g\	-mi-	.
!	!	!	!	!	!	!	!	!	!LO:LB:g=original	!	!
=17	=17	=17	=17	=17	=17	=17	=17	=17	=17	=17	=17
2C/	-ni	.	2c\	-ni	.	2e\	-ni	.	2g\	-ni	.
2r	.	.	2r	.	.	2r	.	.	2r	.	.
2r	.	.	2c\	qui	.	2e\	qui	.	2a\	qui	.
=18	=18	=18	=18	=18	=18	=18	=18	=18	=18	=18	=18
!LO:TX:a:t=1	!	!	!	!	!	!	!	!	!	!	!
1.r	.	.	2c\	ve-	.	2e\	ve-	.	2a\	ve-	.
.	.	.	2B\	-nit	.	2e\	-nit	.	2g#X\	-nit	.
.	.	.	2d\	qui	.	2e\	qui	.	2b\	qui	.
=19	=19	=19	=19	=19	=19	=19	=19	=19	=19	=19	=19
2r	.	.	2d\	ve-	.	2e\	ve-	.	2b\	ve-	.
2r	.	.	2c\	-nit	.	2e\	-nit	.	2a\	-nit	.
2AA/	in	.	2c\	in	.	2e\	in	.	2a\	in	.
!	!	!	!LO:LB:g=original	!	!	!	!	!	!	!	!
=20	=20	=20	=20	=20	=20	=20	=20	=20	=20	=20	=20
2.AA/	No-	.	2.e\	no-	.	2.c\	no-	.	2.cc\	no-	.
4BB/	-mi-	.	4d\	-mi-	.	4d\	-mi-	.	4b\	-mi-	.
2C/	-ne	.	2c\	-ne	.	2e\	-ne	.	2a\	-ne	.
=21	=21	=21	=21	=21	=21	=21	=21	=21	=21	=21	=21
2D\	Do-	.	2d\	Do-	.	2f\	Do-	.	1a	Do-	.
2E\	.	.	2c\	.	.	2e\	.	.	.	.	.
2E\	-mi-	.	2B\	-mi-	.	2e\	-mi-	.	2g#X\	-mi-	.
!LO:PB:g=original	!	!	!	!	!	!	!	!	!	!	!
=22	=22	=22	=22	=22	=22	=22	=22	=22	=22	=22	=22
2AA/	-ni	.	2c\	-ni	.	2e\	-ni	.	2a\	-ni	.
2r	.	.	2r	.	.	2r	.	.	2r	.	.
2AA/	in	.	2c\	in	.	2e\	in	.	2a\	in	.
=23	=23	=23	=23	=23	=23	=23	=23	=23	=23	=23	=23
2.AA/	No-	.	2.e\	No-	.	2.c\	no-	.	2.cc\	No-	.
4BB/	-mi-	.	4d\	-mi-	.	4d\	-mi-	.	4b\	-mi-	.
2C/	-ne	.	2c\	-ne	.	2e\	-ne	.	2a\	-ne	.
=24	=24	=24	=24	=24	=24	=24	=24	=24	=24	=24	=24
2D\	Do-	.	2d\	Do-	.	2f\	Do-	.	2b\	Do-	.
2E\	.	.	2c\	.	.	2e\	.	.	2a\	.	.
2E\	-mi-	.	2B\	-mi-	.	2e\	-mi-	.	2g#X\	-mi-	.
!	!	!	!	!	!	!	!	!	!LO:LB:g=original	!	!
=25	=25	=25	=25	=25	=25	=25	=25	=25	=25	=25	=25
1AA	-ni	.	1c	-ni	.	1e	-ni	.	1a	-ni	.
!LO:TX:a:t=Osanna Da Capo	!	!	!LO:TX:a:t=Osanna Da Capo	!	!	!	!	!	!LO:TX:a:t=Osanna Da Capo	!	!
2r	.	.	2r	.	.	2r	.	.	2r	.	.
==	==	==	==	==	==	==	==	==	==	==	==
*-	*-	*-	*-	*-	*-	*-	*-	*-	*-	*-	*-
!!!system-decoration: [(s1,s2,s3,s4)]
!!!ENC: Berenika Jozajtis
!!!END: 2024-02-06
!!!ENC: Leszek Kubiak
!!!END: 2024-08-02
